X:1
T:Title
%%score { ( 1 3 ) | ( 2 4 ) }
L:1/8
M:3/4
K:A
V:1 treble nm="Grand Piano"
V:3 treble 
V:2 bass 
V:4 bass 
V:1
 z2 z2[Q:1/4=100] [CE]>[DF] | [CE]3 [CA] [Fd]>[Ec] | c2 B2 B>A | G3 A c>B |[M:2/4] [CA]4 | %5
[M:1/4] A>A |[M:3/4] A3 C [CFA]>[B,^EG] | [B,^EG]2 [A,F]2 [^A,EF]>[A,EF] | [^DF]3 [DG] [DA]>[Dc] | %9
[M:2/4] [EB]4 |[M:12/8] [Ec]6- [Ec]2 z z3 | [DF]2 [CE] [CE]6 [EA]3 | [Fd]6- [Fd]2 z z3 | %13
 [Ec]6- [Ec]3 z3 | [DB]6- [DB]2 z z3 | A6- A3 z3 | A,3 A,3 A,2 A AGB | %17
 A3- [CA-][B,A-][DA-] [CA]3 z3 |] %18
V:2
 z2 z2 [A,,A,]>[A,,A,] | [A,,A,]3 [A,,E,] [A,,A,]>[C,A,] | [E,A,E]2 [E,G,D]2 [E,G,D]>[E,A,C] | %3
 [E,B,D]3 [E,A,C] [E,A,E]>[E,G,D] |[M:2/4] [A,,A,]4 |[M:1/4] [F,CF]>[F,CF] | %6
[M:3/4] [F,CF]3 [F,A,] C,>C, | D,2 D,2 C,>C, | [B,,B,]3 [B,,B,] [B,,F,]>[B,,A,] |[M:2/4] [E,G,]4 | %10
[M:12/8] [A,,A,]3 A,,3 A,,2 [E,A,D] [E,G,D][E,A,D][E,B,D] | [A,,A,]2 [A,,A,] [A,,A,]6 [C,A,]3 | %12
 [D,A,]3 D,3 D,2 D, D,2 D, | [A,,A,]3 A,,2 A,, A,,3 [A,,A,]3 | [E,G,]3 E,3 E,2 E, E,E,E, | %15
 A,,3 A,,A,,A,, D,3 D,3 | E,3 E,3 E,2 [E,CE] [E,B,D][E,B,D][E,G,D] | z3 E,D,F, E,3 z3 |] %18
V:3
 x6 | x6 | x6 | x6 |[M:2/4] x4 |[M:1/4] x2 |[M:3/4] x6 | x6 | x6 |[M:2/4] x4 | %10
[M:12/8] z3 A,3 A,2 B BFG | x12 | z3 A,3 A,2 [A,FA] [B,^EG]2 [A,FA] | z3 A,2 A, A,3 [Ec]3 | %14
 z3 G,3 G,2 [A,FA] [B,EG][B,FA][DGB] | C3 [C=G][CG][CG] [DF]3 [A,FA]3 | [CE]6- [CE]2 z z3 | %17
 [A,C]3 z3 z6 |] %18
V:4
 x6 | x6 | x6 | x6 |[M:2/4] x4 |[M:1/4] x2 |[M:3/4] x6 | x6 | x6 |[M:2/4] x4 |[M:12/8] x12 | x12 | %12
 x12 | x12 | x12 | x12 | x12 | A,,6- A,,3 z3 |] %18

